assets/img/category-web.svg

<svg xmlns="http://www.w3.org/2000/svg" viewBox="0 0 158.051 124.617"><g fill="#006fa2"><path d="M15.623 20.295h125.832v40.986H15.623zM15.623 73.336H73.98v30.863H15.623z"/><path d="M154.051 0H4C1.8 0 0 1.8 0 4v116.617c0 2.2 1.8 4 4 4h150.051c2.2 0 4-1.8 4-4V4c0-2.2-1.8-4-4-4zM76.715 106.936H12.888V70.6h63.828v36.336zm66.108 0h-58V104.2h58v2.736zm0-8.4h-58V95.8h58v2.736zm0-8.4h-58V87.4h58v2.736zm0-8.399h-58V79h58v2.737zm0-8.401h-58V70.6h58v2.736zm1.367-9.318H12.888V17.559H144.19v46.459z"/></g><path d="M154.051 124.617H4c-2.2 0-4-1.8-4-4V4c0-2.2 1.8-4 4-4h150.051c2.2 0 4 1.8 4 4v116.617c0 2.2-1.8 4-4 4z" fill="none"/></svg>

<?xml version="1.0" encoding="iso-8859-1"?>
<!-- Generator: Adobe Illustrator 19.2.1, SVG Export Plug-In . SVG Version: 6.00 Build 0)  -->
<svg version="1.1" id="category-web" xmlns="http://www.w3.org/2000/svg" xmlns:xlink="http://www.w3.org/1999/xlink" x="0px"
	 y="0px" viewBox="0 0 158.051 124.617" style="enable-background:new 0 0 158.051 124.617;" xml:space="preserve">
<g>
	<rect x="15.623" y="20.295" style="fill:#FFFFFF;" width="125.832" height="40.986"/>
	<rect x="15.623" y="73.336" style="fill:#FFFFFF;" width="58.357" height="30.863"/>
	<path style="fill:#FFFFFF;" d="M154.051,0H4C1.8,0,0,1.8,0,4v116.617c0,2.2,1.8,4,4,4h150.051c2.2,0,4-1.8,4-4V4
		C158.051,1.8,156.251,0,154.051,0z M76.715,106.936H12.888V70.6h63.828V106.936z M142.823,106.936h-58v-2.736h58V106.936z
		 M142.823,98.536h-58V95.8h58V98.536z M142.823,90.136h-58V87.4h58V90.136z M142.823,81.737h-58V79h58V81.737z M142.823,73.336h-58
		V70.6h58V73.336z M144.19,64.018H12.888V17.559H144.19V64.018z"/>
</g>
<path style="fill:none;" d="M154.051,124.617H4c-2.2,0-4-1.8-4-4V4c0-2.2,1.8-4,4-4h150.051c2.2,0,4,1.8,4,4v116.617
	C158.051,122.817,156.251,124.617,154.051,124.617z"/>
</svg>
